src/icons/split-vertical.svg

<svg width="16" height="16" xmlns="http://www.w3.org/2000/svg"><path d="M14 1H3L2 2v11l1 1h11l1-1V2l-1-1zm0 12H3V8h11v5zm0-6H3V2h11v5z"/></svg>

<svg width="16" height="16" viewBox="0 0 16 16" fill="none" xmlns="http://www.w3.org/2000/svg">
<path d="M14 1H3L2 2V13L3 14H14L15 13V2L14 1ZM14 13H3V8H14V13ZM14 7H3V2H14V7Z" fill="#C5C5C5"/>
</svg>
